X:34
T:Jigs simple chords 21
M:3/4
L:1/8
K:A
c[EA,CE] Ac e2 | f[eA,CE] cA a2 | f[eA,CE] cA EA | c[dD,F,A,] cd B2 | c[EA,CE] Ac e2 |
f[eA,CE] cA a2 | f[eA,CE] cA EA | c2<[B2E,2G,2B,2D2] A2 | c[EA,CE] Ac e2 |
f[eA,CE] cA a2 | f[eA,CE] cA EA | c[dD,F,A,] cd B2 | c[EA,CE] Ac e2 |
f[eA,CE] cA a2 | f[eA,CE] cA EA | c2<[B2E,2G,2B,2D2] A2 | e[eA,CE] fe a2 |
g[bD,F,A,] ag fg | a[eA,CE] cA EA | c[dE,G,B,D] cd B2 | e[eA,CE] fe a2 |
g[bD,F,A,] ag fg | a[eA,CE] cA EA | c2<[B2E,2G,2B,2D2] A2 | e[eA,CE] fe a2 |
g[bD,F,A,] ag fg | a[eA,CE] cA EA | c[dE,G,B,D] cd B2 | e[eA,CE] fe a2 |
g[bD,F,A,] ag fg | a[eA,CE] cA EA | c2<[B2E,2G,2B,2D2] A2 |


